X:4
T:Cock of the North
M:6/8
Q:350
K:G
d|"G"B2B BAG|"G"B2d "C"e2d|"G"B2B BAG|"A7"A3 "D7"A2d|
"G"B2B BAG|"G"B2d "C"e2d|"G"B2B "D7"ABA|"G"G3 G2:|
d|:"G"g2d "C"e2d|"G"g2d "C"e2d|"G"B2B BAG|"Am"A3 "D7"A2d|
"G"g2d "C"e2d|"G"g2d "C"e2d|"G"B2B "D7"ABA|"G"G3 G2:|
